assets/images/line_bot.svg

<svg fill="none" height="128" viewBox="0 0 375 128" width="375" xmlns="http://www.w3.org/2000/svg"
    xmlns:xlink="http://www.w3.org/1999/xlink">
    <clipPath id="a">
        <path d="m0 0h375v128h-375z" />
    </clipPath>
    <g clip-path="url(#a)">
        <path
            d="m523.523 634.481c7.499-2.16 14.353-5.72 20.372-10.582 2.903-2.344 5.593-4.987 7.996-7.855 2.381-2.842 4.5-5.929 6.3-9.176s3.295-6.68 4.443-10.205c1.159-3.558 1.974-7.24 2.424-10.944.937-7.706.317-15.429-1.842-22.957l-.014-.05-.012-.051-118.886-514.5971c-2.16-7.5081-5.723-14.3701-10.59-20.3957-2.344-2.9026-4.987-5.5928-7.855-7.9958-2.841-2.3807-5.929-4.5004-9.176-6.3002-3.247-1.7999-6.68-3.2947-10.205-4.44268-3.558-1.15897-7.239-1.97469-10.943-2.42469-7.706-.93613-15.43-.31633-22.957 1.84214l-274.7967 78.79653c-7.5274 2.1585-14.4061 5.7259-20.4449 10.6032-2.9026 2.3443-5.5928 4.9873-7.9958 7.8553-2.3808 2.842-4.5004 5.929-6.3002 9.176-1.7999 3.247-3.2947 6.68-4.4427 10.205-1.159 3.558-1.9747 7.24-2.4247 10.943-.9361 7.706-.3164 15.43 1.8421 22.958l.0726.253.0046.263 8.8945 514.383c2.1654 7.43 5.7075 14.223 10.5306 20.194 2.3444 2.903 4.9872 5.593 7.8554 7.996 2.8414 2.381 5.9285 4.501 9.1755 6.3 3.247 1.8 6.6807 3.295 10.2047 4.443 3.558 1.159 7.24 1.975 10.944 2.425 7.706.936 15.429.316 22.957-1.842l.074-.022.076-.015zm.478 1.944-384.796 78.796c-31.853 9.134-65.0795-9.284-74.2133-41.137l-8.8991-514.649c-9.1338-31.853 9.284-65.0802 41.1374-74.214l274.796-78.79656c31.854-9.13382 65.08 9.28406 74.214 41.13746l118.899 514.6491c9.134 31.853-9.284 65.08-41.138 74.214z"
            fill="#09a2b6" />
        <path
            d="m493.523 654.481c7.499-2.16 14.353-5.72 20.372-10.582 2.903-2.344 5.593-4.987 7.996-7.855 2.381-2.842 4.5-5.929 6.3-9.176s3.295-6.68 4.443-10.205c1.159-3.558 1.974-7.24 2.424-10.944.937-7.706.317-15.429-1.842-22.957l-.014-.05-.012-.051-118.886-514.5971c-2.16-7.5081-5.723-14.3701-10.59-20.3957-2.344-2.9026-4.987-5.5928-7.855-7.9958-2.841-2.3807-5.929-4.5004-9.176-6.3002-3.247-1.7999-6.68-3.2947-10.205-4.4427-3.558-1.1589-7.239-1.9747-10.943-2.4247-7.706-.9361-15.43-.3163-22.957 1.8422l-274.7967 78.797c-7.5274 2.158-14.4061 5.725-20.4449 10.603-2.9026 2.344-5.5928 4.987-7.9958 7.855-2.3808 2.842-4.5004 5.929-6.3002 9.176-1.7999 3.247-3.2947 6.68-4.4427 10.205-1.159 3.558-1.9747 7.24-2.4247 10.943-.9361 7.706-.3164 15.43 1.8421 22.958l.0726.253.0046.263 8.8945 514.383c2.1654 7.43 5.7075 14.223 10.5306 20.194 2.3444 2.903 4.9872 5.593 7.8554 7.996 2.8414 2.381 5.9285 4.501 9.1755 6.3 3.247 1.8 6.6804 3.295 10.2051 4.443 3.5577 1.159 7.2397 1.975 10.9435 2.425 7.7057.936 15.4291.316 22.9571-1.842l.074-.022.076-.015zm.478 1.944-384.796 78.796c-31.8531 9.134-65.0795-9.284-74.2133-41.137l-8.8991-514.649c-9.1338-31.853 9.284-65.08 41.1374-74.214l274.796-78.7966c31.854-9.1338 65.08 9.2841 74.214 41.1375l118.899 514.6491c9.134 31.853-9.284 65.08-41.138 74.214z"
            fill="#83d2c6" />
    </g>
</svg>

<svg width="375" height="128" viewBox="0 0 375 128" fill="none" xmlns="http://www.w3.org/2000/svg">
<g clip-path="url(#clip0)">
<path d="M523.523 634.481C531.022 632.321 537.876 628.761 543.895 623.899C546.798 621.555 549.488 618.912 551.891 616.044C554.272 613.202 556.391 610.115 558.191 606.868C559.991 603.621 561.486 600.188 562.634 596.663C563.793 593.105 564.608 589.423 565.058 585.719C565.995 578.013 565.375 570.29 563.216 562.762L563.202 562.712L563.19 562.661L444.304 48.0639C442.144 40.5558 438.581 33.6938 433.714 27.6682C431.37 24.7656 428.727 22.0754 425.859 19.6724C423.018 17.2917 419.93 15.172 416.683 13.3722C413.436 11.5723 410.003 10.0775 406.478 8.92952C402.92 7.77055 399.239 6.95483 395.535 6.50483C387.829 5.5687 380.105 6.1885 372.578 8.34697L97.7813 87.1435C90.2539 89.302 83.3752 92.8694 77.3364 97.7467C74.4338 100.091 71.7436 102.734 69.3406 105.602C66.9598 108.444 64.8402 111.531 63.0404 114.778C61.2405 118.025 59.7457 121.458 58.5977 124.983C57.4387 128.541 56.623 132.223 56.173 135.926C55.2369 143.632 55.8566 151.356 58.0151 158.884L58.0877 159.137L58.0923 159.4L66.9868 673.783C69.1522 681.213 72.6943 688.006 77.5174 693.977C79.8618 696.88 82.5046 699.57 85.3728 701.973C88.2142 704.354 91.3013 706.474 94.5483 708.273C97.7953 710.073 101.229 711.568 104.753 712.716C108.311 713.875 111.993 714.691 115.697 715.141C123.403 716.077 131.126 715.457 138.654 713.299L138.728 713.277L138.804 713.262L523.523 634.481ZM524.001 636.425L139.205 715.221C107.352 724.355 74.1255 705.937 64.9917 674.084L56.0926 159.435C46.9588 127.582 65.3766 94.3548 97.23 85.221L372.026 6.42444C403.88 -2.70938 437.106 15.7085 446.24 47.5619L565.139 562.211C574.273 594.064 555.855 627.291 524.001 636.425Z" fill="#09A2B6"/>
<path d="M493.523 654.481C501.022 652.321 507.876 648.761 513.895 643.899C516.798 641.555 519.488 638.912 521.891 636.044C524.272 633.202 526.391 630.115 528.191 626.868C529.991 623.621 531.486 620.188 532.634 616.663C533.793 613.105 534.608 609.423 535.058 605.719C535.995 598.013 535.375 590.29 533.216 582.762L533.202 582.712L533.19 582.661L414.304 68.0639C412.144 60.5558 408.581 53.6938 403.714 47.6682C401.37 44.7656 398.727 42.0754 395.859 39.6724C393.018 37.2917 389.93 35.172 386.683 33.3722C383.436 31.5723 380.003 30.0775 376.478 28.9295C372.92 27.7706 369.239 26.9548 365.535 26.5048C357.829 25.5687 350.105 26.1885 342.578 28.347L67.7813 107.144C60.2539 109.302 53.3752 112.869 47.3364 117.747C44.4338 120.091 41.7436 122.734 39.3406 125.602C36.9598 128.444 34.8402 131.531 33.0404 134.778C31.2405 138.025 29.7457 141.458 28.5977 144.983C27.4387 148.541 26.623 152.223 26.173 155.926C25.2369 163.632 25.8566 171.356 28.0151 178.884L28.0877 179.137L28.0923 179.4L36.9868 693.783C39.1522 701.213 42.6943 708.006 47.5174 713.977C49.8618 716.88 52.5046 719.57 55.3728 721.973C58.2142 724.354 61.3013 726.474 64.5483 728.273C67.7953 730.073 71.2287 731.568 74.7534 732.716C78.3111 733.875 81.9931 734.691 85.6969 735.141C93.4026 736.077 101.126 735.457 108.654 733.299L108.728 733.277L108.804 733.262L493.523 654.481ZM494.001 656.425L109.205 735.221C77.3519 744.355 44.1255 725.937 34.9917 694.084L26.0926 179.435C16.9588 147.582 35.3766 114.355 67.23 105.221L342.026 26.4244C373.88 17.2906 407.106 35.7085 416.24 67.5619L535.139 582.211C544.273 614.064 525.855 647.291 494.001 656.425Z" fill="#83D2C6"/>
</g>
<defs>
<clipPath id="clip0">
<rect width="375" height="128" fill="white"/>
</clipPath>
</defs>
</svg>
